X: 89
T:Laridetou
M:3/4
L:1/4
C:Traditional
R:Waltz
Z:Steve Mansfield
K:D
FDE | F>EF | GEF | G>FG | AFG | ABc | 
dc/d/ c/B/ | A3 :: F/G/Ad | c2B | E/F/Gc | B2A | 
FDE | F>EF | A/B/ A/G/ F/E/|1 FE/F/D:|2 D3 ||
<end>
<start>
